X:1
T:Old Dominion
M:C|
L:1/8
R:Reel
S:White\'is Unique Collection (1896), No. 66
Z:AK/Fiddler\'is Companion
K:C
G2 | c2c2 BcdB | cega gece | f2 (fd) e2 (ec) | dcBA G2 (AB) | c2c2 BcdB |
cega gece | f2 (fd) dcBA | GABc defg | ecdB c2 :: G2 | cege cege | defe dcBd |
cege cege | (dg)(^fa) g2G2 | cege cege | f2 (fe) dcBA | GABc defg | ecdB c2 :|
